z_dist/img/bg/bp428/main-footer-wave.svg

<svg width="428" height="700" viewBox="0 0 428 700" fill="none" xmlns="http://www.w3.org/2000/svg">
<path fill-rule="evenodd" clip-rule="evenodd" d="M410.167 29.3808L428 27.5278V72H427.446V700H0V72V5.29174L17.8333 3.43873L17.8334 3.43873C35.6667 1.58572 71.3334 -2.12029 107 1.58572C130.778 4.0564 154.556 9.82131 178.333 15.5862C190.222 18.4687 202.111 21.3511 214 23.8218C249.667 31.2338 285.333 34.9398 321 34.9398C356.667 34.9398 392.333 31.2338 410.167 29.3808Z" fill="#F5F5F5"/>
</svg>

<svg width="428" height="700" fill="none" xmlns="http://www.w3.org/2000/svg"><path fill-rule="evenodd" clip-rule="evenodd" d="M410.167 29.38L428 27.529V72h-.554v628H0V5.292l17.833-1.853c17.834-1.853 53.5-5.56 89.167-1.853 23.778 2.47 47.556 8.235 71.333 14 11.889 2.883 23.778 5.765 35.667 8.236 35.667 7.412 71.333 11.118 107 11.118s71.333-3.706 89.167-5.56z" fill="#F5F5F5"/></svg>
